images/entrance-border-1.svg

<svg width="92" height="46" viewBox="0 0 92 46" fill="none" xmlns="http://www.w3.org/2000/svg">
<path d="M1.46349 1.81866L3.29284 0.169742L3.3261 0.121244L3.42589 0.0484976H3.62545L28.8373 0H29.0701L29.1699 0.0727464L29.2032 0.121244L31.0991 1.64892H48.2285L48.3615 1.74591L49.7585 2.81286H57.0759L59.0716 1.69742L59.1714 1.62467H90.7028L90.8359 1.72167L91.867 2.44913L92 2.54613V2.69162L91.9002 44.4238V44.5693L91.7672 44.6663L90.0043 45.8788L89.8713 45.9758H35.423L35.3232 45.9273L35.2899 45.903L33.5271 44.7633H16.7303L15.3999 45.8788L15.3666 45.9273L15.2668 46H10.5437V45.4665H9.27983V46H7.61677V45.4908H6.91829V46H1.66305L1.53001 45.903L0.166305 44.9573L0.033261 44.8603L0 18.5261L0.0997831 18.4291L0.166305 18.4049L0.931309 17.9441L0.864787 11.7364V11.3969H1.82936V8.39009H0.898048V6.61993H1.43022L1.39696 2.01265V1.89141L1.46349 1.84291V1.81866ZM3.85828 0.703216L2.29501 2.15814L2.32827 6.95941V7.29889H1.7961V7.71112H2.7274V12.0759H1.76283L1.82936 18.1139V18.2594L1.72957 18.3321L1.66305 18.3564L0.898048 18.8171L0.931309 44.5693L2.02892 45.321H5.98698V44.8118H8.34852V44.7633H11.4751V45.2968H14.8344L16.1649 44.1813L16.1981 44.1328H33.8597L33.9595 44.1813L33.9928 44.2056L35.7556 45.3453H89.5054L91.0022 44.3026L91.1019 2.83711L90.3369 2.30364H59.504L57.5083 3.41908L57.4085 3.49183H49.3594L49.2263 3.39483L47.8294 2.32789H30.6667L30.5669 2.25514L30.5336 2.20664L28.6377 0.678967L3.85828 0.703216Z" fill="#68E1FC"/>
</svg>

<svg width="92" height="46" fill="none" xmlns="http://www.w3.org/2000/svg"><path d="M1.463 1.819l1.83-1.65.033-.048.1-.073h.2L28.836 0h.233l.1.073.033.048L31.1 1.65h17.13l.133.097 1.396 1.067h7.318l1.996-1.116.1-.072h31.53l.134.097 1.031.727.133.097v.146l-.1 41.732v.145l-.133.097-1.763 1.213-.133.097H35.423l-.1-.049-.033-.024-1.763-1.14H16.73L15.4 45.88l-.033.048-.1.073h-4.723v-.533H9.28V46H7.617v-.51h-.699V46H1.663l-.133-.097-1.364-.946-.133-.097L0 18.526l.1-.097.066-.024.765-.46-.066-6.209v-.34h.964V8.39H.898V6.62h.532l-.033-4.607V1.89l.066-.048v-.024zM3.858.703L2.295 2.158l.033 4.801v.34h-.532v.412h.931v4.365h-.964l.066 6.038v.145l-.1.073-.066.024-.765.461.033 25.752 1.098.752h3.958v-.51h2.362v-.048h3.126v.534h3.36l1.33-1.116.033-.048H33.86l.1.048.033.025 1.763 1.14h53.75l1.496-1.043.1-41.466-.765-.533H59.504l-1.996 1.115-.1.073H49.36l-.133-.097-1.397-1.067H30.667l-.1-.073-.033-.048L28.638.679 3.858.703z" fill="#68E1FC"/></svg>
